svg/movie_play.svg

<svg xmlns="http://www.w3.org/2000/svg" viewBox="0 0 24 24"><path d="M22 4v9.81c-.88-.51-1.9-.81-3-.81-3.31 0-6 2.69-6 6 0 .34.04.67.09 1H4a2 2 0 0 1-2-2V6a2 2 0 0 1 2-2h1l2 4h3L8 4h2l2 4h3l-2-4h2l2 4h3l-2-4zm-5 18 5-3-5-3z"/></svg>

<?xml version="1.0" encoding="UTF-8"?><!DOCTYPE svg PUBLIC "-//W3C//DTD SVG 1.1//EN" "http://www.w3.org/Graphics/SVG/1.1/DTD/svg11.dtd"><svg xmlns="http://www.w3.org/2000/svg" xmlns:xlink="http://www.w3.org/1999/xlink" version="1.1" id="mdi-movie-play" width="24" height="24" viewBox="0 0 24 24"><path d="M22 4V13.81C21.12 13.3 20.1 13 19 13C15.69 13 13 15.69 13 19C13 19.34 13.04 19.67 13.09 20H4C2.9 20 2 19.11 2 18V6C2 4.89 2.9 4 4 4H5L7 8H10L8 4H10L12 8H15L13 4H15L17 8H20L18 4H22M17 22L22 19L17 16V22Z" /></svg>
